svg/logo/arc_browser_fill.svg

<svg xmlns="http://www.w3.org/2000/svg" width="24" height="24" viewBox="0 0 24 24"><g fill="none" fill-rule="evenodd"><path d="M24,0 L24,24 L0,24 L0,0 L24,0 Z M12.5935,23.2578 L12.5819,23.2595 L12.5109,23.295 L12.4919,23.2987 L12.4767,23.295 L12.4057,23.2595 C12.3958,23.2564 12.387,23.259 12.3821,23.2649 L12.378,23.2758 L12.3609,23.7031 L12.3659,23.7235 L12.3769,23.7357 L12.4805,23.8097 L12.4953,23.8136 L12.5071,23.8097 L12.6107,23.7357 L12.6233,23.7197 L12.6267,23.7031 L12.6096,23.2758 C12.6076,23.2657 12.601,23.2593 12.5935,23.2578 Z M12.8584,23.1453 L12.8445,23.1473 L12.6598,23.2397 L12.6499,23.2499 L12.6472,23.2611 L12.6651,23.6906 L12.6699,23.7034 L12.6784,23.7105 L12.8793,23.8032 C12.8914,23.8069 12.9022,23.803 12.9078,23.7952 L12.9118,23.7812 L12.8777,23.1665 C12.8753,23.1546 12.8674,23.147 12.8584,23.1453 Z M12.143,23.1473 C12.1332,23.1424 12.1222,23.1453 12.1156,23.1526 L12.1099,23.1665 L12.0758,23.7812 C12.0751,23.7927 12.0828,23.8019 12.0926,23.8046 L12.1083,23.8032 L12.3092,23.7105 L12.3186,23.7024 L12.3225,23.6906 L12.3404,23.2611 L12.3372,23.2485 L12.3278,23.2397 L12.143,23.1473 Z"/><path fill="#09244B" d="M11.5001,3.7002 C12.3712,3.7002 13.1676,4.1924 13.5572,4.9716 L16.2901,10.4374 C16.951,9.63467 17.4139,8.663 17.6037,7.59702 C17.8264,6.34643 19.0207,5.51314 20.2713,5.73581 C21.5219,5.95848 22.3552,7.15278 22.1325,8.40337 C21.6808,10.9404 20.3445,13.1711 18.4535,14.7642 L19.5572,16.9716 C20.1253,18.1078 19.6648,19.4893 18.5287,20.0574 C17.3925,20.6255 16.011,20.1649 15.4429,19.0288 L14.384,16.911 C13.466,17.1647 12.499,17.3002 11.5001,17.3002 C10.5012,17.3002 9.53414,17.1645 8.61629,16.9107 L7.55724,19.0288 C6.98917,20.1649 5.60762,20.6255 4.47147,20.0574 C3.33532,19.4893 2.8748,18.1078 3.44288,16.9716 L4.54672,14.7639 C3.68399,14.0373 2.93706,13.1786 2.33743,12.2195 C1.66401,11.1425 1.99122,9.72343 3.06828,9.05001 C4.14533,8.37659 5.56438,8.7038 6.2378,9.78086 C6.38121,10.0102 6.53906,10.2295 6.71005,10.4373 L9.44288,4.9716 C9.83248,4.1924 10.6289,3.7002 11.5001,3.7002 Z M10.7443,12.6547 C10.992,12.6847 11.2443,12.7002 11.5001,12.7002 C11.7558,12.7002 12.008,12.6847 12.2558,12.6546 L11.5001,11.1432 L10.7443,12.6547 Z"/></g></svg>

<svg xmlns="http://www.w3.org/2000/svg" width="24" height="24"><g fill="none" fill-rule="evenodd"><path d="M24 0v24H0V0zM12.594 23.258l-.012.002-.071.035-.02.004-.014-.004-.071-.036c-.01-.003-.019 0-.024.006l-.004.01-.017.428.005.02.01.013.104.074.015.004.012-.004.104-.074.012-.016.004-.017-.017-.427c-.002-.01-.009-.017-.016-.018m.264-.113-.014.002-.184.093-.01.01-.003.011.018.43.005.012.008.008.201.092c.012.004.023 0 .029-.008l.004-.014-.034-.614c-.003-.012-.01-.02-.02-.022m-.715.002a.023.023 0 0 0-.027.006l-.006.014-.034.614c0 .012.007.02.017.024l.015-.002.201-.093.01-.008.003-.011.018-.43-.003-.012-.01-.01z"/><path fill="#09244B" d="M11.5 3.7a2.3 2.3 0 0 1 2.057 1.272l2.733 5.465a6.167 6.167 0 0 0 1.314-2.84 2.3 2.3 0 0 1 4.529.806 10.795 10.795 0 0 1-3.68 6.361l1.104 2.208a2.3 2.3 0 1 1-4.114 2.057l-1.059-2.118c-.918.254-1.885.39-2.884.39-.999 0-1.966-.136-2.884-.39l-1.059 2.118a2.3 2.3 0 0 1-4.114-2.057l1.104-2.208a10.846 10.846 0 0 1-2.21-2.544 2.3 2.3 0 1 1 3.9-2.44c.144.23.302.45.473.657l2.733-5.465A2.3 2.3 0 0 1 11.5 3.7m-.756 8.955a6.285 6.285 0 0 0 1.512 0l-.756-1.512z"/></g></svg>
